packages/core/src/svgs/tokens/branded/LUSD.svg

<svg width="24" height="24" viewBox="0 0 24 24" fill="none" xmlns="http://www.w3.org/2000/svg">
<path d="M13.8749 22C18.4962 21.1182 22 16.8781 22 12C22 7.12195 18.4962 3.06012 13.8749 2.17761V4.82635C14.8169 5.20634 15.7312 5.96884 16.5518 7.39257C16.5518 7.4782 14.8893 8.61625 14.1037 9.14883C13.1331 6.80258 11.6256 6.77884 10.9994 7.62258C10.1031 8.83252 11.6694 9.63387 13.4637 10.3038C15.4937 11.0594 17.0287 12.8468 17 15.125C16.9718 17.3525 15.3812 18.5194 13.8749 19.0937V22Z" fill="#745DDF"/>
<path d="M10.7499 2H2V12.18C2.08999 17.2124 5.8556 21.4112 10.7499 21.9999V19.1685C9.05552 18.7655 7.40371 17.4929 7.21121 14.8575L10.0049 14.0455C9.98739 14.9149 10.3617 16.6512 12.0012 16.6405C13.6405 16.6299 13.9968 15.4468 13.9699 14.8575C14.0323 14.4711 13.7261 13.5349 12.0012 12.8749C9.8455 12.0499 7.90308 10.4799 7.90308 8.35057C7.90308 6.05559 9.28112 5.18747 10.7499 4.7506V2Z" fill="#2EB6EA"/>
</svg>

<svg xmlns="http://www.w3.org/2000/svg" width="24" height="24" fill="none" viewBox="0 0 24 24">
    <path fill="#745DDF" d="M13.875 22C18.496 21.118 22 16.878 22 12s-3.504-8.94-8.125-9.822v2.648c.942.38 1.856 1.143 2.677 2.567 0 .085-1.663 1.223-2.448 1.756-.97-2.346-2.478-2.37-3.105-1.526-.896 1.21.67 2.01 2.465 2.68 2.03.756 3.565 2.544 3.536 4.822-.028 2.227-1.619 3.394-3.125 3.969z"/>
    <path fill="#2EB6EA" d="M10.75 2H2v10.18c.09 5.032 3.856 9.231 8.75 9.82v-2.831c-1.694-.404-3.346-1.676-3.539-4.312l2.794-.811c-.018.869.357 2.605 1.996 2.595 1.64-.011 1.996-1.194 1.969-1.783.062-.387-.244-1.323-1.969-1.983-2.155-.825-4.098-2.395-4.098-4.524 0-2.295 1.378-3.164 2.847-3.6z"/>
</svg>
